X:1
T:Let Us All Speak Our Minds
M:6/8
L:1/8
K:D
 A| AGF B2 B| AGF B2 B/2B/2| ABA AdF| FE z z EF| GAB B2 G| FGA A z d|\
 cBA BA^G| BA z z2 A| BBB AAA| GGG F2 F/2F/2| EEE FED| AAA z AA| AGF BBB|\
 AGF BBB| ddd cBc| dDD z2||

